X: 4
T: The Dingle Regatta
R: slide
M: 12/8
L: 1/8
K: Gmaj
[M:6/8] B/2c/2 | d2d e2d | B2B d2c | A2A AGA | B3 G2B/2c/2 |
d2d e2d | B2B d2c | A2A ABA | G3 G2 :|
|:g | f>ed def | g3 d2B | c2d B2c | A2A A2f |
f>ed def | g3 e2d | ^c2c cBc | d3 d2 :|
B/2c/2 | d2d e2d | B2B d2c | A2A AGA | B3 G2B/2c/2 |
d2d e2d | B2B d2c | A2A ABA | G3 G2 ||


Tune 23	Setting 12403

